images/dark/kafka.svg

<svg height="32" viewBox="0 0 32 32" width="32" xmlns="http://www.w3.org/2000/svg"><path d="m21.537 17.724c-1.246 0-2.363.552-3.128 1.421l-1.96-1.388c.208-.572.327-1.188.327-1.832 0-.632-.115-1.237-.316-1.802l1.956-1.373c.765.865 1.879 1.414 3.121 1.414 2.3 0 4.172-1.871 4.172-4.171 0-2.301-1.872-4.172-4.172-4.172s-4.171 1.871-4.171 4.172c0 .411.062.808.174 1.184l-1.957 1.374c-.818-1.014-1.995-1.722-3.337-1.939v-2.359c1.89-.396 3.314-2.075 3.314-4.081 0-2.301-1.872-4.172-4.172-4.172s-4.171 1.871-4.171 4.172c0 1.979 1.387 3.637 3.238 4.062v2.39c-2.527.443-4.455 2.649-4.455 5.301 0 2.666 1.947 4.879 4.493 5.308v2.523c-1.871.411-3.276 2.08-3.276 4.072 0 2.301 1.871 4.172 4.171 4.172s4.172-1.871 4.172-4.172c0-1.992-1.406-3.661-3.276-4.072v-2.523c1.315-.222 2.47-.916 3.279-1.908l1.974 1.397c-.11.373-.171.766-.171 1.174 0 2.3 1.871 4.171 4.171 4.171s4.172-1.871 4.172-4.171c0-2.301-1.872-4.172-4.172-4.172zm0-9.754c1.116 0 2.023.907 2.023 2.023 0 1.115-.907 2.022-2.023 2.022-1.115 0-2.022-.907-2.022-2.022 0-1.116.907-2.023 2.022-2.023zm-12.171-3.798c0-1.115.907-2.023 2.022-2.023 1.116 0 2.023.908 2.023 2.023s-.907 2.022-2.023 2.022c-1.115 0-2.022-.907-2.022-2.022zm4.045 23.656c0 1.115-.907 2.023-2.023 2.023-1.115 0-2.022-.908-2.022-2.023s.907-2.022 2.022-2.022c1.116 0 2.023.907 2.023 2.022zm-2.023-9.082c-1.556 0-2.821-1.265-2.821-2.821 0-1.555 1.265-2.821 2.821-2.821 1.555 0 2.821 1.266 2.821 2.821 0 1.556-1.266 2.821-2.821 2.821zm10.149 5.172c-1.115 0-2.022-.907-2.022-2.022s.907-2.023 2.022-2.023c1.116 0 2.023.908 2.023 2.023s-.907 2.022-2.023 2.022z" fill="#c5c5c5"/></svg>

<?xml version="1.0" encoding="UTF-8"?>
<svg width="32px" height="32px" viewBox="0 0 32 32" xmlns="http://www.w3.org/2000/svg" xmlns:xlink="http://www.w3.org/1999/xlink" version="1.1">
 <g id="g4">
  <path id="path6" d="M21.537 17.724 C20.291 17.724 19.174 18.276 18.409 19.145 L16.449 17.757 C16.657 17.185 16.776 16.569 16.776 15.925 16.776 15.293 16.661 14.688 16.46 14.123 L18.416 12.75 C19.181 13.615 20.295 14.164 21.537 14.164 23.837 14.164 25.709 12.293 25.709 9.993 25.709 7.692 23.837 5.821 21.537 5.821 19.237 5.821 17.366 7.692 17.366 9.993 17.366 10.404 17.428 10.801 17.54 11.177 L15.583 12.551 C14.765 11.537 13.588 10.829 12.246 10.612 L12.246 8.253 C14.136 7.857 15.56 6.178 15.56 4.172 15.56 1.871 13.688 0 11.388 0 9.088 0 7.217 1.871 7.217 4.172 7.217 6.151 8.604 7.809 10.455 8.234 L10.455 10.624 C7.928 11.067 6 13.273 6 15.925 6 18.591 7.947 20.804 10.493 21.233 L10.493 23.756 C8.622 24.167 7.217 25.836 7.217 27.828 7.217 30.129 9.088 32 11.388 32 13.688 32 15.56 30.129 15.56 27.828 15.56 25.836 14.154 24.167 12.284 23.756 L12.284 21.233 C13.599 21.011 14.754 20.317 15.563 19.325 L17.537 20.722 C17.427 21.095 17.366 21.488 17.366 21.896 17.366 24.196 19.237 26.067 21.537 26.067 23.837 26.067 25.709 24.196 25.709 21.896 25.709 19.595 23.837 17.724 21.537 17.724 L21.537 17.724 Z M21.537 7.97 C22.653 7.97 23.56 8.877 23.56 9.993 23.56 11.108 22.653 12.015 21.537 12.015 20.422 12.015 19.515 11.108 19.515 9.993 19.515 8.877 20.422 7.97 21.537 7.97 L21.537 7.97 Z M9.366 4.172 C9.366 3.057 10.273 2.149 11.388 2.149 12.504 2.149 13.411 3.057 13.411 4.172 13.411 5.287 12.504 6.194 11.388 6.194 10.273 6.194 9.366 5.287 9.366 4.172 L9.366 4.172 Z M13.411 27.828 C13.411 28.943 12.504 29.851 11.388 29.851 10.273 29.851 9.366 28.943 9.366 27.828 9.366 26.713 10.273 25.806 11.388 25.806 12.504 25.806 13.411 26.713 13.411 27.828 L13.411 27.828 Z M11.388 18.746 C9.832 18.746 8.567 17.481 8.567 15.925 8.567 14.37 9.832 13.104 11.388 13.104 12.943 13.104 14.209 14.37 14.209 15.925 14.209 17.481 12.943 18.746 11.388 18.746 L11.388 18.746 Z M21.537 23.918 C20.422 23.918 19.515 23.011 19.515 21.896 19.515 20.781 20.422 19.873 21.537 19.873 22.653 19.873 23.56 20.781 23.56 21.896 23.56 23.011 22.653 23.918 21.537 23.918 L21.537 23.918 Z" fill="#c5c5c5" fill-opacity="1" stroke="none"/>
 </g>
</svg>
